public/new/vuesaxboldcalendar1.svg

<svg width="25" height="24" viewBox="0 0 25 24" fill="none" xmlns="http://www.w3.org/2000/svg">
<path d="M17.5842 3.56V2C17.5842 1.59 17.2442 1.25 16.8342 1.25C16.4242 1.25 16.0842 1.59 16.0842 2V3.5H9.58421V2C9.58421 1.59 9.24421 1.25 8.83421 1.25C8.42421 1.25 8.08421 1.59 8.08421 2V3.56C5.38421 3.81 4.07421 5.42 3.87421 7.81C3.85421 8.1 4.09421 8.34 4.37421 8.34H21.2942C21.5842 8.34 21.8242 8.09 21.7942 7.81C21.5942 5.42 20.2842 3.81 17.5842 3.56Z" fill="#434665"/>
<path d="M20.834 9.83984H4.83398C4.28398 9.83984 3.83398 10.2898 3.83398 10.8398V16.9998C3.83398 19.9998 5.33398 21.9998 8.83398 21.9998H16.834C20.334 21.9998 21.834 19.9998 21.834 16.9998V10.8398C21.834 10.2898 21.384 9.83984 20.834 9.83984ZM10.044 18.2098C9.99398 18.2498 9.94398 18.2998 9.89398 18.3298C9.83398 18.3698 9.77398 18.3998 9.71398 18.4198C9.65398 18.4498 9.59398 18.4698 9.53398 18.4798C9.46398 18.4898 9.40398 18.4998 9.33398 18.4998C9.20398 18.4998 9.07398 18.4698 8.95398 18.4198C8.82398 18.3698 8.72398 18.2998 8.62398 18.2098C8.44398 18.0198 8.33398 17.7598 8.33398 17.4998C8.33398 17.2398 8.44398 16.9798 8.62398 16.7898C8.72398 16.6998 8.82398 16.6298 8.95398 16.5798C9.13398 16.4998 9.33398 16.4798 9.53398 16.5198C9.59398 16.5298 9.65398 16.5498 9.71398 16.5798C9.77398 16.5998 9.83398 16.6298 9.89398 16.6698C9.94398 16.7098 9.99398 16.7498 10.044 16.7898C10.224 16.9798 10.334 17.2398 10.334 17.4998C10.334 17.7598 10.224 18.0198 10.044 18.2098ZM10.044 14.7098C9.85398 14.8898 9.59398 14.9998 9.33398 14.9998C9.07398 14.9998 8.81398 14.8898 8.62398 14.7098C8.44398 14.5198 8.33398 14.2598 8.33398 13.9998C8.33398 13.7398 8.44398 13.4798 8.62398 13.2898C8.90398 13.0098 9.34398 12.9198 9.71398 13.0798C9.84398 13.1298 9.95398 13.1998 10.044 13.2898C10.224 13.4798 10.334 13.7398 10.334 13.9998C10.334 14.2598 10.224 14.5198 10.044 14.7098ZM13.544 18.2098C13.354 18.3898 13.094 18.4998 12.834 18.4998C12.574 18.4998 12.314 18.3898 12.124 18.2098C11.944 18.0198 11.834 17.7598 11.834 17.4998C11.834 17.2398 11.944 16.9798 12.124 16.7898C12.494 16.4198 13.174 16.4198 13.544 16.7898C13.724 16.9798 13.834 17.2398 13.834 17.4998C13.834 17.7598 13.724 18.0198 13.544 18.2098ZM13.544 14.7098C13.494 14.7498 13.444 14.7898 13.394 14.8298C13.334 14.8698 13.274 14.8998 13.214 14.9198C13.154 14.9498 13.094 14.9698 13.034 14.9798C12.964 14.9898 12.904 14.9998 12.834 14.9998C12.574 14.9998 12.314 14.8898 12.124 14.7098C11.944 14.5198 11.834 14.2598 11.834 13.9998C11.834 13.7398 11.944 13.4798 12.124 13.2898C12.214 13.1998 12.324 13.1298 12.454 13.0798C12.824 12.9198 13.264 13.0098 13.544 13.2898C13.724 13.4798 13.834 13.7398 13.834 13.9998C13.834 14.2598 13.724 14.5198 13.544 14.7098ZM17.044 18.2098C16.854 18.3898 16.594 18.4998 16.334 18.4998C16.074 18.4998 15.814 18.3898 15.624 18.2098C15.444 18.0198 15.334 17.7598 15.334 17.4998C15.334 17.2398 15.444 16.9798 15.624 16.7898C15.994 16.4198 16.674 16.4198 17.044 16.7898C17.224 16.9798 17.334 17.2398 17.334 17.4998C17.334 17.7598 17.224 18.0198 17.044 18.2098ZM17.044 14.7098C16.994 14.7498 16.944 14.7898 16.894 14.8298C16.834 14.8698 16.774 14.8998 16.714 14.9198C16.654 14.9498 16.594 14.9698 16.534 14.9798C16.464 14.9898 16.394 14.9998 16.334 14.9998C16.074 14.9998 15.814 14.8898 15.624 14.7098C15.444 14.5198 15.334 14.2598 15.334 13.9998C15.334 13.7398 15.444 13.4798 15.624 13.2898C15.724 13.1998 15.824 13.1298 15.954 13.0798C16.134 12.9998 16.334 12.9798 16.534 13.0198C16.594 13.0298 16.654 13.0498 16.714 13.0798C16.774 13.0998 16.834 13.1298 16.894 13.1698C16.944 13.2098 16.994 13.2498 17.044 13.2898C17.224 13.4798 17.334 13.7398 17.334 13.9998C17.334 14.2598 17.224 14.5198 17.044 14.7098Z" fill="#434665"/>
</svg>

<svg fill="none" height="24" viewBox="0 0 25 24" width="25" xmlns="http://www.w3.org/2000/svg"><g fill="#434665"><path d="m17.5842 3.56v-1.56c0-.41-.34-.75-.75-.75s-.75.34-.75.75v1.5h-6.49999v-1.5c0-.41-.34-.75-.75-.75s-.75.34-.75.75v1.56c-2.7.25-4.01 1.86-4.21 4.25-.02.29.22.53.5.53h16.91999c.29 0 .53-.25.5-.53-.2-2.39-1.51-4-4.21-4.25z"/><path d="m20.834 9.83984h-16.00002c-.55 0-1 .44996-1 .99996v6.16c0 3 1.5 5 5 5h8.00002c3.5 0 5-2 5-5v-6.16c0-.55-.45-.99996-1-.99996zm-10.79 8.36996c-.05002.04-.10002.09-.15002.12-.06.04-.12.07-.18.09-.06.03-.12.05-.18.06-.07.01-.13.02-.2.02-.13 0-.26-.03-.38-.08-.13-.05-.23-.12-.33-.21-.18-.19-.29-.45-.29-.71s.11-.52.29-.71c.1-.09.2-.16.33-.21.18-.08.38-.1.58-.06.06.01.12.03.18.06.06.02.12.05.18.09.05.04.1.08.15002.12.18.19.29.45.29.71s-.11.52-.29.71zm0-3.5c-.19002.18-.45002.29-.71002.29s-.52-.11-.71-.29c-.18-.19-.29-.45-.29-.71s.11-.52.29-.71c.28-.28.72-.37 1.09-.21.13.05.24.12.33002.21.18.19.29.45.29.71s-.11.52-.29.71zm3.5 3.5c-.19.18-.45.29-.71.29s-.52-.11-.71-.29c-.18-.19-.29-.45-.29-.71s.11-.52.29-.71c.37-.37 1.05-.37 1.42 0 .18.19.29.45.29.71s-.11.52-.29.71zm0-3.5c-.05.04-.1.08-.15.12-.06.04-.12.07-.18.09-.06.03-.12.05-.18.06-.07.01-.13.02-.2.02-.26 0-.52-.11-.71-.29-.18-.19-.29-.45-.29-.71s.11-.52.29-.71c.09-.09.2-.16.33-.21.37-.16.81-.07 1.09.21.18.19.29.45.29.71s-.11.52-.29.71zm3.5 3.5c-.19.18-.45.29-.71.29s-.52-.11-.71-.29c-.18-.19-.29-.45-.29-.71s.11-.52.29-.71c.37-.37 1.05-.37 1.42 0 .18.19.29.45.29.71s-.11.52-.29.71zm0-3.5c-.05.04-.1.08-.15.12-.06.04-.12.07-.18.09-.06.03-.12.05-.18.06-.07.01-.14.02-.2.02-.26 0-.52-.11-.71-.29-.18-.19-.29-.45-.29-.71s.11-.52.29-.71c.1-.09.2-.16.33-.21.18-.08.38-.1.58-.06.06.01.12.03.18.06.06.02.12.05.18.09.05.04.1.08.15.12.18.19.29.45.29.71s-.11.52-.29.71z"/></g></svg>
